public/assets/img/arrow-up.svg

<svg width="20" height="20" viewBox="0 0 20 20" fill="none" xmlns="http://www.w3.org/2000/svg">
<path d="M9.99677 16.5105C10.4916 16.5105 10.8301 16.1654 10.8301 15.6511V8.02738L10.778 6.61462L12.2624 8.30082L13.7468 9.77218C13.8965 9.92843 14.0983 10.0326 14.3457 10.0326C14.8015 10.0326 15.14 9.69405 15.14 9.21879C15.14 9.00395 15.0554 8.79561 14.8796 8.61983L10.6153 4.35551C10.459 4.18624 10.2246 4.09509 9.99677 4.09509C9.7689 4.09509 9.54104 4.18624 9.37828 4.35551L5.12046 8.61983C4.94468 8.79561 4.86005 9.00395 4.86005 9.21879C4.86005 9.69405 5.19859 10.0326 5.65432 10.0326C5.90171 10.0326 6.09703 9.92843 6.25328 9.77218L7.73114 8.30082L9.22203 6.61462L9.16343 8.02738V15.6511C9.16343 16.1654 9.50197 16.5105 9.99677 16.5105Z" fill="white"/>
</svg>

<svg width="20" height="20" fill="none" xmlns="http://www.w3.org/2000/svg"><path d="M9.997 16.51c.495 0 .833-.345.833-.859V8.027l-.052-1.412L12.262 8.3l1.485 1.471c.15.156.351.26.599.26.456 0 .794-.338.794-.813a.836.836 0 0 0-.26-.6l-4.265-4.263a.851.851 0 0 0-.618-.26.862.862 0 0 0-.619.26L5.12 8.62a.836.836 0 0 0-.26.599c0 .475.339.814.794.814a.825.825 0 0 0 .6-.26L7.73 8.3l1.491-1.686-.059 1.412v7.624c0 .514.339.86.834.86Z" fill="#000" fill-opacity=".4"/></svg>
